svgs/sharp-regular/calendars.svg

<svg xmlns="http://www.w3.org/2000/svg" viewBox="0 0 512 512"><!--! Font Awesome Pro 6.6.0 by @fontawesome - https://fontawesome.com License - https://fontawesome.com/license (Commercial License) Copyright 2024 Fonticons, Inc. --><path d="M248 0l0 24 0 40 112 0 0-40 0-24 48 0 0 24 0 40 104 0 0 64 0 48 0 16 0 176 0 48-48 0-320 0-48 0 0-48 0-176 0-16 0-48 0-64 104 0 0-40 0-24 48 0zM144 192l0 176 320 0 0-176-320 0zm-96-8l0 280 344 0 24 0 0 48-24 0L24 512 0 512l0-24L0 184l0-24 48 0 0 24z"/></svg>

<svg xmlns="http://www.w3.org/2000/svg" viewBox="0 0 512 512"><!--! Font Awesome Pro 6.4.0 by @fontawesome - https://fontawesome.com License - https://fontawesome.com/license (Commercial License) Copyright 2023 Fonticons, Inc. --><path d="M248 0V24 64H360V24 0h48V24 64H512v64 48 16V368v48H464 144 96V368 192 176 128 64H200V24 0h48zM144 192V368H464V192H144zm-96-8V464H392h24v48H392 24 0V488 184 160H48v24z"/></svg>
